X:11
T:Reel Eugne
R:reel
M:C
K:D
"Bm"B3 c dcB2| "Em"e3f "Em/c#"gec2| "F#7"f3g fede| "Bm"f (3bbb .b2 b2|
"Bm"B3 c dcB2| "Em"e3f "Em/c#"gec2| "F#7"f3g fedc|1 "Bm".B2 "F#7"F4 :|2 "Bm".B2 "A7"A4 ||
|:"D"f3e d2(3cec| BAdf b3f| "Em"a3g "A7".e2 .c2| "D"dfed "A7"cdBA|
"D"f3e d2(3cec| BAdf b3f| "Em"a3g .e2 .c2| "A7"dfed "D"d4 :|
